src/lib/packages/icons/src/assets/filled/book-open.svg

<svg width="24" height="24" viewBox="0 0 24 24" fill="none" xmlns="http://www.w3.org/2000/svg">
<path d="M21 5.31992V18.3299C21 18.6599 20.6801 18.89 20.3501 18.8C17.9661 18.121 15.573 18.118 13.187 19.308C12.986 19.408 12.749 19.272 12.749 19.047V5.853C12.749 5.786 12.7701 5.71901 12.8091 5.66501C13.4321 4.81001 14.396 4.21495 15.519 4.07895C17.331 3.85895 19.0731 4.07903 20.7141 4.86203C20.8891 4.94503 21 5.12692 21 5.31992ZM8.47998 4.07993C6.66798 3.85993 4.92591 4.08001 3.28491 4.86301C3.11091 4.94601 3 5.12802 3 5.32102V18.331C3 18.661 3.3199 18.891 3.6499 18.801C6.0339 18.122 8.42699 18.1189 10.813 19.3089C11.014 19.4089 11.251 19.2729 11.251 19.0479V5.85398C11.251 5.78698 11.2299 5.71999 11.1909 5.66599C10.5669 4.81099 9.60398 4.21593 8.47998 4.07993Z" fill="currentColor"/>
</svg>

<svg xmlns="http://www.w3.org/2000/svg" width="24" height="24" fill="none"><path fill="currentColor" d="M21 5.32v13.01c0 .33-.32.56-.65.47-2.384-.679-4.777-.682-7.163.508-.201.1-.438-.036-.438-.261V5.853c0-.067.021-.134.06-.188a3.927 3.927 0 0 1 2.71-1.586c1.812-.22 3.554 0 5.195.783A.509.509 0 0 1 21 5.32ZM8.48 4.08c-1.812-.22-3.554 0-5.195.783A.51.51 0 0 0 3 5.321v13.01c0 .33.32.56.65.47 2.384-.679 4.777-.682 7.163.508.201.1.438-.036.438-.261V5.854a.324.324 0 0 0-.06-.188A3.929 3.929 0 0 0 8.48 4.08Z"/></svg>
